neru-dark-classic/22x22/emblems/emblem-rabbitvcs-added.svg

<svg xmlns="http://www.w3.org/2000/svg" width="22" height="22"><g transform="translate(-1 -1)"><circle cx="12" cy="12" r="10" fill="#af7f4c"/><path d="M10 5v5H5v4h5v5h4v-5h5v-4h-5V5z" fill="#fff"/></g></svg>

<svg xmlns="http://www.w3.org/2000/svg" width="22" height="22" version="1.1" viewBox="0 0 22 22">
 <g transform="translate(-1,-1)">
  <circle style="fill:#af7f4c" cx="12" cy="12" r="10"/>
  <path style="fill:#ffffff" d="M 10,5 V 10 H 5 V 14 H 10 V 19 H 14 V 14 H 19 V 10 H 14 V 5 Z"/>
 </g>
</svg>
